!!!OTL: O Jezu iakos cieszko skathowany
**kern
*staff1
=--
*clefC1
*k[b-]
1a
2a
2a
=-
1b-
2a
1a
2g
=-
2e
2d
1e
1f
=-
2r
2.a
4a
2a
2b-
2b-
!!linebreak:original
=-
1g
1a
=-
2g
2f
1g
1a
=-
1cc
1cc
=-
2cc
1b-
2b-
=-
1a
1a
=-
2r
2a
2b-
2cc
2.cc
4cc
=-
!!linebreak:original
2cc
2b-
2a
2g
=-
1a
1a
=-
2r
2f
2g
2a
2.b-
4b-
=-
2b-
2a
2.g
4f
1e
=-
0f
=-=
*-
!!title: @{OTL}, @{GTL}, ed. @{ENC}
!!!pag:
!!!GTL: Hymnbook C
!!!EFL: 
!!!YEM: Creative Commons CC/BY/NC/SA 4.0
!!!ENC: Marcin Konik
!!!END: 2015-0m-dd
!!!EED: Marcin Konik
!!!EEV: 
!!!ONB: Encoded in vim by Marcin Konik
!!!CharacterEncoding: utf-8
!!!RDF**kern: l=long note in original notation
!!!RDF**kern: i=editorial accidental
!!muse2ps: z14jc180F
!!!COM: Anonim
!!!CDT: [?]
!!!TXO: Polish
!!!ODT: 
!!!GTL: Hymnbook C
!!!ARL: Opactwo św. Wojciecha, Staniątki 
!!!voices:	1
